public/icons/icon/duplicate.svg

<svg width="30" height="30" viewBox="0 0 30 30" fill="none" xmlns="http://www.w3.org/2000/svg">
<path fill-rule="evenodd" clip-rule="evenodd" d="M2 19.0001C2 20.6569 3.34315 22.0001 5 22.0001H8L8 20.0001H5C4.44772 20.0001 4 19.5523 4 19.0001L4 5.00006C4 4.44778 4.44772 4.00006 5 4.00006L19 4.00006C19.5523 4.00006 20 4.44778 20 5.00006V7.99998H11C9.34315 7.99998 8 9.34313 8 11V25C8 26.6568 9.34315 28 11 28H25C26.6569 28 28 26.6568 28 25V11C28 9.34313 26.6569 7.99998 25 7.99998H22V5.00006C22 3.34321 20.6569 2.00006 19 2.00006H5C3.34315 2.00006 2 3.34321 2 5.00006V19.0001ZM10 11C10 10.4477 10.4477 9.99998 11 9.99998H25C25.5523 9.99998 26 10.4477 26 11V25C26 25.5523 25.5523 26 25 26H11C10.4477 26 10 25.5523 10 25V11Z" fill="black"/>
</svg>

<svg xmlns="http://www.w3.org/2000/svg" width="30" height="30" fill="none"><path fill="#000" fill-rule="evenodd" d="M2 19a3 3 0 0 0 3 3h3v-2H5a1 1 0 0 1-1-1V5a1 1 0 0 1 1-1h14a1 1 0 0 1 1 1v3h-9a3 3 0 0 0-3 3v14a3 3 0 0 0 3 3h14a3 3 0 0 0 3-3V11a3 3 0 0 0-3-3h-3V5a3 3 0 0 0-3-3H5a3 3 0 0 0-3 3v14Zm8-8a1 1 0 0 1 1-1h14a1 1 0 0 1 1 1v14a1 1 0 0 1-1 1H11a1 1 0 0 1-1-1V11Z" clip-rule="evenodd"/></svg>
